public/assets/images/icons/check-location.svg

<svg width="24" height="24" viewBox="0 0 24 24" fill="none" xmlns="http://www.w3.org/2000/svg">
<path opacity="0.25" d="M12.0005 2C8.14065 2 5.00049 5.00168 5.00049 8.69125C5.00049 13.1664 12.0106 22 12.0106 22C12.0106 22 14.129 19.2292 15.7223 16.6514C17.8975 13.132 19.0005 10.4538 19.0005 8.69129C19.0005 5.00168 15.8603 2 12.0005 2ZM14.6693 16.0454C13.6312 17.7257 12.583 19.2059 11.9914 20.0166C11.3986 19.2314 10.3585 17.8064 9.32851 16.1662C7.30113 12.9374 6.22949 10.3527 6.22949 8.69129C6.22949 5.64949 8.81835 3.17484 12.0005 3.17484C15.1826 3.17484 17.7715 5.64953 17.7715 8.69129C17.7715 9.75559 17.2333 11.8954 14.6693 16.0454Z" fill="white"/>
<ellipse cx="12.0003" cy="8.5" rx="4.69565" ry="4.5" fill="#F0C13B"/>
<path d="M13.0966 7L11.6042 8.61958L10.6804 8.03686L10.0005 8.85382L11.8178 10L14.0005 7.63126L13.0966 7Z" fill="#545260"/>
</svg>

<svg width="24" height="24" fill="none" xmlns="http://www.w3.org/2000/svg"><path opacity=".25" d="M12 2C8.14 2 5 5.002 5 8.691 5 13.166 12.01 22 12.01 22s2.119-2.77 3.712-5.349C17.898 13.132 19 10.454 19 8.691 19 5.001 15.86 2 12 2zm2.67 14.045a64.43 64.43 0 01-2.679 3.972 56.319 56.319 0 01-2.662-3.85c-2.028-3.23-3.1-5.814-3.1-7.476 0-3.042 2.59-5.516 5.772-5.516 3.182 0 5.77 2.475 5.77 5.516 0 1.065-.538 3.204-3.102 7.354z" fill="#fff"/><ellipse cx="12" cy="8.5" rx="4.696" ry="4.5" fill="#F0C13B"/><path d="M13.097 7l-1.493 1.62-.924-.583-.68.817L11.819 10 14 7.631 13.097 7z" fill="#545260"/></svg>
